packages/icon-set-material/svg/outline/margin.svg

<svg xmlns="http://www.w3.org/2000/svg" viewBox="0 0 24 24"><path d="M3.5 20.5v-17h17v17ZM8.05 8.95q.375 0 .638-.262.262-.263.262-.613 0-.375-.262-.637-.263-.263-.638-.263-.35 0-.612.263-.263.262-.263.637 0 .35.263.613.262.262.612.262Zm3.95 0q.375 0 .625-.262.25-.263.25-.613 0-.375-.25-.637-.25-.263-.625-.263t-.625.263q-.25.262-.25.637 0 .35.25.613.25.262.625.262Zm3.95 0q.35 0 .612-.262.263-.263.263-.613 0-.375-.263-.637-.262-.263-.612-.263-.375 0-.638.263-.262.262-.262.637 0 .35.262.613.263.262.638.262Zm0 3.925q.35 0 .612-.25.263-.25.263-.625t-.263-.625q-.262-.25-.612-.25-.375 0-.638.25-.262.25-.262.625t.262.625q.263.25.638.25Zm-3.95 0q.375 0 .625-.25t.25-.625q0-.375-.25-.625t-.625-.25q-.375 0-.625.25t-.25.625q0 .375.25.625t.625.25Zm-3.95 0q.375 0 .638-.25.262-.25.262-.625t-.262-.625q-.263-.25-.638-.25-.35 0-.612.25-.263.25-.263.625t.263.625q.262.25.612.25ZM5 19h14V5H5ZM5 5v14Z"/></svg>

<svg xmlns="http://www.w3.org/2000/svg" viewBox="0 0 24 24"><path d="M3 21V3h18v18ZM8 9q.425 0 .713-.288Q9 8.425 9 8t-.287-.713Q8.425 7 8 7t-.713.287Q7 7.575 7 8t.287.712Q7.575 9 8 9Zm4 0q.425 0 .713-.288Q13 8.425 13 8t-.287-.713Q12.425 7 12 7t-.712.287Q11 7.575 11 8t.288.712Q11.575 9 12 9Zm4 0q.425 0 .712-.288Q17 8.425 17 8t-.288-.713Q16.425 7 16 7t-.712.287Q15 7.575 15 8t.288.712Q15.575 9 16 9Zm0 4q.425 0 .712-.288Q17 12.425 17 12t-.288-.713Q16.425 11 16 11t-.712.287Q15 11.575 15 12t.288.712Q15.575 13 16 13Zm-4 0q.425 0 .713-.288Q13 12.425 13 12t-.287-.713Q12.425 11 12 11t-.712.287Q11 11.575 11 12t.288.712Q11.575 13 12 13Zm-4 0q.425 0 .713-.288Q9 12.425 9 12t-.287-.713Q8.425 11 8 11t-.713.287Q7 11.575 7 12t.287.712Q7.575 13 8 13Zm-3 6h14V5H5ZM5 5v14Z"/></svg>
